src/assets/diagnosis.svg

<svg width="61" height="61" viewBox="0 0 61 61" fill="none" xmlns="http://www.w3.org/2000/svg">
<g clip-path="url(#clip0_5_490)">
<g clip-path="url(#clip1_5_490)">
<g clip-path="url(#clip2_5_490)">
<path opacity="0.4" d="M39.3968 30.3944C39.3968 35.4532 35.3089 39.5411 30.2501 39.5411C25.1914 39.5411 21.1035 35.4532 21.1035 30.3944C21.1035 25.3356 25.1914 21.2478 30.2501 21.2478C35.3089 21.2478 39.3968 25.3356 39.3968 30.3944Z" stroke="#F7931E" stroke-width="3.8324" stroke-linecap="round" stroke-linejoin="round"/>
<path d="M30.2499 51.5241C39.2689 51.5241 47.6746 46.2099 53.5254 37.0121C55.8249 33.4096 55.8249 27.3544 53.5254 23.752C47.6746 14.5543 39.2689 9.23999 30.2499 9.23999C21.2311 9.23999 12.8254 14.5543 6.97458 23.752C4.67514 27.3544 4.67514 33.4096 6.97458 37.0121C12.8254 46.2099 21.2311 51.5241 30.2499 51.5241Z" stroke="#F7931E" stroke-width="3.8324" stroke-linecap="round" stroke-linejoin="round"/>
</g>
</g>
</g>
<defs>
<clipPath id="clip0_5_490">
<rect width="54" height="47" fill="white" transform="translate(3.25 7.28003)"/>
</clipPath>
<clipPath id="clip1_5_490">
<rect width="54" height="47" fill="white" transform="translate(3.25 7.28003)"/>
</clipPath>
<clipPath id="clip2_5_490">
<rect width="54" height="47" fill="white" transform="translate(3.25 7.28003)"/>
</clipPath>
</defs>
</svg>

<svg width="61" height="61" fill="none" xmlns="http://www.w3.org/2000/svg"><g clip-path="url(#a)"><g clip-path="url(#b)"><g clip-path="url(#c)" stroke="#F7931E" stroke-width="3.832" stroke-linecap="round" stroke-linejoin="round"><path opacity=".4" d="M39.397 30.394a9.137 9.137 0 0 1-9.147 9.147 9.137 9.137 0 0 1-9.146-9.147 9.137 9.137 0 0 1 9.146-9.146 9.137 9.137 0 0 1 9.147 9.146Z"/><path d="M30.25 51.524c9.019 0 17.425-5.314 23.275-14.512 2.3-3.602 2.3-9.658 0-13.26C47.675 14.554 39.27 9.24 30.25 9.24c-9.019 0-17.425 5.314-23.275 14.512-2.3 3.602-2.3 9.658 0 13.26 5.85 9.198 14.256 14.512 23.275 14.512Z"/></g></g></g><defs><clipPath id="a"><path fill="#fff" transform="translate(3.25 7.28)" d="M0 0h54v47H0z"/></clipPath><clipPath id="b"><path fill="#fff" transform="translate(3.25 7.28)" d="M0 0h54v47H0z"/></clipPath><clipPath id="c"><path fill="#fff" transform="translate(3.25 7.28)" d="M0 0h54v47H0z"/></clipPath></defs></svg>
